X:156
T:Bonny Lasses. JC.155
R:Reel
S:John Clare,Poet,Helpstone (1793-1864)
O:England
A:Northamptonshire
Z:vmp.P. Headford
M:2/4
L:1/8
Q:1/4=140
K:G
BG cA|dB eg|dB GB|dB A2|\
BG cA|dB eg|ag eg|dB G2:|!
|:af ge|fd eA|af Bc|d2d2|\
af ge|fd eA|af ge|Bc ” D.C.”d2:|

